assets/img/10-year.svg

<svg width="474" height="112" viewBox="0 0 474 112" fill="none" xmlns="http://www.w3.org/2000/svg">
<g clip-path="url(#clip0)">
<path d="M42.7149 2.2387V109.165H22.8375V18.8887H0.207825V2.2387H42.7149ZM108.595 110.693C100.032 110.693 92.387 108.554 85.6592 104.277C78.9315 99.8983 73.6308 93.5846 69.7573 85.336C65.8837 76.9855 63.947 67.1075 63.947 55.702C63.947 44.2965 65.8837 34.4694 69.7573 26.2208C73.6308 17.8704 78.9315 11.5566 85.6592 7.27953C92.387 2.90063 100.032 0.711182 108.595 0.711182C117.157 0.711182 124.803 2.90063 131.53 7.27953C138.36 11.5566 143.712 17.8704 147.585 26.2208C151.459 34.4694 153.396 44.2965 153.396 55.702C153.396 67.1075 151.459 76.9855 147.585 85.336C143.712 93.5846 138.36 99.8983 131.53 104.277C124.803 108.554 117.157 110.693 108.595 110.693ZM108.595 93.4318C116.24 93.4318 122.254 90.2749 126.637 83.9612C131.123 77.6474 133.365 68.2277 133.365 55.702C133.365 43.1763 131.123 33.7566 126.637 27.4428C122.254 21.1291 116.24 17.9722 108.595 17.9722C101.051 17.9722 95.0373 21.1291 90.5521 27.4428C86.1689 33.7566 83.9773 43.1763 83.9773 55.702C83.9773 68.2277 86.1689 77.6474 90.5521 83.9612C95.0373 90.2749 101.051 93.4318 108.595 93.4318ZM289.207 27.5956V109.165H270.094V43.7873H239.514L238.749 59.9791C238.24 70.7736 237.22 79.8369 235.691 87.169C234.264 94.3993 231.767 100.153 228.199 104.43C224.733 108.605 219.942 110.693 213.826 110.693C210.972 110.693 207.455 110.133 203.276 109.013L204.193 92.9736C205.62 93.2791 206.843 93.4318 207.863 93.4318C211.736 93.4318 214.641 91.9043 216.578 88.8493C218.515 85.6924 219.738 81.9754 220.248 77.6983C220.859 73.3194 221.369 67.1075 221.777 59.0626L223.153 27.5956H289.207ZM391.399 68.8387C391.399 70.1626 391.297 72.0465 391.093 74.4905H327.026C328.148 80.4988 331.053 85.285 335.742 88.8493C340.533 92.3116 346.445 94.0428 353.479 94.0428C362.449 94.0428 369.839 91.0896 375.65 85.1832L385.894 96.9451C382.224 101.324 377.586 104.634 371.98 106.874C366.373 109.114 360.053 110.235 353.02 110.235C344.05 110.235 336.15 108.452 329.32 104.888C322.49 101.324 317.19 96.385 313.418 90.0713C309.748 83.6557 307.913 76.4254 307.913 68.3804C307.913 60.4373 309.697 53.3089 313.265 46.9951C316.935 40.5795 321.98 35.5896 328.402 32.0254C334.824 28.4612 342.062 26.6791 350.115 26.6791C358.066 26.6791 365.15 28.4612 371.368 32.0254C377.688 35.4878 382.581 40.4268 386.047 46.8424C389.615 53.1561 391.399 60.4883 391.399 68.8387ZM350.115 41.9543C343.999 41.9543 338.8 43.7873 334.519 47.4534C330.339 51.0176 327.791 55.8038 326.873 61.8121H373.203C372.388 55.9057 369.89 51.1194 365.711 47.4534C361.531 43.7873 356.333 41.9543 350.115 41.9543ZM473.995 43.7873H445.402V109.165H426.289V43.7873H397.543V27.5956H473.995V43.7873Z" fill="url(#paint0_linear)"/>
</g>
<defs>
<linearGradient id="paint0_linear" x1="60.6343" y1="-18.8853" x2="344.469" y2="196.316" gradientUnits="userSpaceOnUse">
<stop stop-color="#19DB8C"/>
<stop offset="1" stop-color="#40AB99"/>
</linearGradient>
<clipPath id="clip0">
<rect width="474" height="111" fill="white" transform="translate(0 0.201904)"/>
</clipPath>
</defs>
</svg>

<svg width="474" height="112" viewBox="0 0 474 112" fill="none" xmlns="http://www.w3.org/2000/svg"><g clip-path="url(#clip0)"><path d="M42.715 2.239v106.926H22.837V18.889H.207V2.239h42.508zm65.88 108.454c-8.563 0-16.208-2.139-22.936-6.416-6.728-4.379-12.028-10.692-15.902-18.941-3.873-8.35-5.81-18.228-5.81-29.634 0-11.405 1.937-21.233 5.81-29.481 3.874-8.35 9.174-14.664 15.902-18.941C92.387 2.9 100.032.71 108.595.71c8.562 0 16.208 2.19 22.935 6.569 6.83 4.277 12.182 10.59 16.055 18.94 3.874 8.25 5.811 18.077 5.811 29.482 0 11.406-1.937 21.284-5.811 29.634-3.873 8.249-9.225 14.562-16.055 18.941-6.727 4.277-14.373 6.416-22.935 6.416zm0-17.261c7.645 0 13.659-3.157 18.042-9.47 4.486-6.315 6.728-15.734 6.728-28.26 0-12.526-2.242-21.945-6.728-28.26-4.383-6.313-10.397-9.47-18.042-9.47-7.544 0-13.558 3.157-18.043 9.47-4.383 6.315-6.575 15.734-6.575 28.26 0 12.526 2.192 21.945 6.575 28.26 4.485 6.313 10.499 9.47 18.043 9.47zm180.612-65.836v81.569h-19.113V43.787h-30.58l-.765 16.192c-.509 10.795-1.529 19.858-3.058 27.19-1.427 7.23-3.924 12.984-7.492 17.261-3.466 4.175-8.257 6.263-14.373 6.263-2.854 0-6.371-.56-10.55-1.68l.917-16.04c1.427.306 2.65.459 3.67.459 3.873 0 6.778-1.528 8.715-4.583 1.937-3.157 3.16-6.874 3.67-11.15.611-4.38 1.121-10.591 1.529-18.636l1.376-31.467h66.054zm102.192 41.243c0 1.324-.102 3.207-.306 5.651h-64.067c1.122 6.009 4.027 10.795 8.716 14.36 4.791 3.462 10.703 5.193 17.737 5.193 8.97 0 16.36-2.953 22.171-8.86l10.244 11.762c-3.67 4.379-8.308 7.689-13.914 9.929-5.607 2.24-11.927 3.361-18.96 3.361-8.97 0-16.87-1.783-23.7-5.347-6.83-3.564-12.13-8.503-15.902-14.817-3.67-6.415-5.505-13.646-5.505-21.69 0-7.944 1.784-15.072 5.352-21.386 3.67-6.415 8.715-11.405 15.137-14.97 6.422-3.564 13.66-5.346 21.713-5.346 7.951 0 15.035 1.782 21.253 5.346 6.32 3.463 11.213 8.402 14.679 14.817 3.568 6.314 5.352 13.646 5.352 21.997zm-41.284-26.885c-6.116 0-11.315 1.833-15.596 5.5-4.18 3.564-6.728 8.35-7.646 14.358h46.33c-.815-5.906-3.313-10.693-7.492-14.359-4.18-3.666-9.378-5.499-15.596-5.499zm123.88 1.833h-28.593v65.378h-19.113V43.787h-28.746V27.596h76.452v16.191z" fill="url(#paint0_linear)"/></g><defs><linearGradient id="paint0_linear" x1="60.634" y1="-18.885" x2="344.469" y2="196.316" gradientUnits="userSpaceOnUse"><stop stop-color="#19DB8C"/><stop offset="1" stop-color="#40AB99"/></linearGradient><clipPath id="clip0"><path fill="#fff" transform="translate(0 .202)" d="M0 0h474v111H0z"/></clipPath></defs></svg>
